world_stage/static/flags/rect/mys.svg

<svg height="1866.6667" viewBox="0 0 2800 1866.6667" width="2800" xmlns="http://www.w3.org/2000/svg" xmlns:xlink="http://www.w3.org/1999/xlink"><clipPath id="a"><path d="m0 1400h2100v-1400h-2100z" transform="translate(-423.27001 -1258.4248)"/></clipPath><clipPath id="b"><path d="m0 1400h2100v-1400h-2100z" transform="translate(-838.3291 -879.11472)"/></clipPath><g transform="matrix(1.3333333 0 0 -1.3333333 0 1866.6667)"><path d="m0 0h2100v1400h-2100z" fill="#cc0001"/><g fill="#fff"><path d="m0 0h2100v100h-2100z"/><path d="m0 200h2100v100h-2100z"/><path d="m0 400h2100v100.001h-2100z"/><path d="m0 600h2100v100h-2100z"/><path d="m0 800h2100v100h-2100z"/><path d="m0 1000h2100v100h-2100z"/><path d="m0 1200h2100v100h-2100z"/></g><path d="m0 600h1050v800h-1050z" fill="#010066"/></g><g fill="#fc0"><path clip-path="url(#a)" d="m0 0c-138.151 0-250.282-111.758-250.282-249.451 0-137.692 112.131-249.451 250.282-249.451 49.913 0 96.417 14.605 135.474 39.732-22.744-7.849-47.154-12.142-72.566-12.142-122.503 0-221.925 99.092-221.925 221.188s99.422 221.188 221.925 221.188c27.072 0 53.005-4.835 76.999-13.692-39.946 26.904-88.1 42.628-139.907 42.628" transform="matrix(1.3333333 0 0 -1.3333333 564.36 188.76693)"/><path clip-path="url(#b)" d="m0 0-105.426 55.006 31.171-112.575-70.515 94.17-21.999-114.618-21.636 114.684-70.812-93.958 31.528 112.481-105.601-54.689 78.447 88.002-119.472-4.588 109.828 46.092-109.682 46.422 119.457-4.948-78.167 88.237 105.426-55.006-31.172 112.576 70.515-94.17 21.999 114.617 21.636-114.683 70.812 93.958-31.527-112.482 105.6 54.689-78.447-88.001 119.473 4.587-109.828-46.091 109.682-46.422-119.457 4.947z" transform="matrix(1.3333333 0 0 -1.3333333 1117.7721 694.51373)"/></g></svg>

<?xml version="1.0" encoding="UTF-8" standalone="no"?>
<!-- Created with Inkscape (http://www.inkscape.org/) -->

<svg
   version="1.1"
   id="svg1"
   width="2800"
   height="1866.6667"
   viewBox="0 0 2800 1866.6667"
   sodipodi:docname="my.ai"
   xmlns:inkscape="http://www.inkscape.org/namespaces/inkscape"
   xmlns:sodipodi="http://sodipodi.sourceforge.net/DTD/sodipodi-0.dtd"
   xmlns="http://www.w3.org/2000/svg"
   xmlns:svg="http://www.w3.org/2000/svg">
  <defs
     id="defs1">
    <clipPath
       clipPathUnits="userSpaceOnUse"
       id="clipPath11">
      <path
         d="M 0,1400 H 2100 V 0 H 0 Z"
         transform="translate(-423.27001,-1258.4248)"
         id="path11" />
    </clipPath>
    <clipPath
       clipPathUnits="userSpaceOnUse"
       id="clipPath13">
      <path
         d="M 0,1400 H 2100 V 0 H 0 Z"
         transform="translate(-838.3291,-879.11472)"
         id="path13" />
    </clipPath>
  </defs>
  <sodipodi:namedview
     id="namedview1"
     pagecolor="#ffffff"
     bordercolor="#000000"
     borderopacity="0.25"
     inkscape:showpageshadow="2"
     inkscape:pageopacity="0.0"
     inkscape:pagecheckerboard="0"
     inkscape:deskcolor="#d1d1d1">
    <inkscape:page
       x="0"
       y="0"
       inkscape:label="1"
       id="page1"
       width="2800"
       height="1866.6667"
       margin="0"
       bleed="0" />
  </sodipodi:namedview>
  <g
     id="layer-MC0"
     inkscape:groupmode="layer"
     inkscape:label="Layer 1">
    <path
       id="path1"
       d="M 0,0 H 2100 V 1400 H 0 Z"
       style="fill:#cc0001;fill-opacity:1;fill-rule:nonzero;stroke:none"
       transform="matrix(1.3333333,0,0,-1.3333333,0,1866.6667)" />
    <path
       id="path2"
       d="M 0,0 H 2100 V 100 H 0 Z"
       style="fill:#ffffff;fill-opacity:1;fill-rule:nonzero;stroke:none"
       transform="matrix(1.3333333,0,0,-1.3333333,0,1866.6667)" />
    <path
       id="path3"
       d="M 0,200 H 2100 V 300 H 0 Z"
       style="fill:#ffffff;fill-opacity:1;fill-rule:nonzero;stroke:none"
       transform="matrix(1.3333333,0,0,-1.3333333,0,1866.6667)" />
    <path
       id="path4"
       d="M 0,400 H 2100 V 500.001 H 0 Z"
       style="fill:#ffffff;fill-opacity:1;fill-rule:nonzero;stroke:none"
       transform="matrix(1.3333333,0,0,-1.3333333,0,1866.6667)" />
    <path
       id="path5"
       d="M 0,600 H 2100 V 700 H 0 Z"
       style="fill:#ffffff;fill-opacity:1;fill-rule:nonzero;stroke:none"
       transform="matrix(1.3333333,0,0,-1.3333333,0,1866.6667)" />
    <path
       id="path6"
       d="M 0,800 H 2100 V 900 H 0 Z"
       style="fill:#ffffff;fill-opacity:1;fill-rule:nonzero;stroke:none"
       transform="matrix(1.3333333,0,0,-1.3333333,0,1866.6667)" />
    <path
       id="path7"
       d="m 0,1000 h 2100 v 100 H 0 Z"
       style="fill:#ffffff;fill-opacity:1;fill-rule:nonzero;stroke:none"
       transform="matrix(1.3333333,0,0,-1.3333333,0,1866.6667)" />
    <path
       id="path8"
       d="m 0,1200 h 2100 v 100 H 0 Z"
       style="fill:#ffffff;fill-opacity:1;fill-rule:nonzero;stroke:none"
       transform="matrix(1.3333333,0,0,-1.3333333,0,1866.6667)" />
    <path
       id="path9"
       d="m 0,600 h 1050 v 800 H 0 Z"
       style="fill:#010066;fill-opacity:1;fill-rule:nonzero;stroke:none"
       transform="matrix(1.3333333,0,0,-1.3333333,0,1866.6667)" />
    <path
       id="path10"
       d="m 0,0 c -138.151,0 -250.282,-111.758 -250.282,-249.451 0,-137.692 112.131,-249.451 250.282,-249.451 49.913,0 96.417,14.605 135.474,39.732 -22.744,-7.849 -47.154,-12.142 -72.566,-12.142 -122.503,0 -221.925,99.092 -221.925,221.188 0,122.096 99.422,221.188 221.925,221.188 27.072,0 53.005,-4.835 76.999,-13.692 C 99.961,-15.724 51.807,0 0,0"
       style="fill:#ffcc00;fill-opacity:1;fill-rule:nonzero;stroke:none"
       transform="matrix(1.3333333,0,0,-1.3333333,564.36,188.76693)"
       clip-path="url(#clipPath11)" />
    <path
       id="path12"
       d="m 0,0 -105.426,55.006 31.171,-112.575 -70.515,94.17 -21.999,-114.618 -21.636,114.684 -70.812,-93.958 31.528,112.481 -105.601,-54.689 78.447,88.002 -119.472,-4.588 109.828,46.092 -109.682,46.422 119.457,-4.948 -78.167,88.237 105.426,-55.006 -31.172,112.576 70.515,-94.17 21.999,114.617 21.636,-114.683 70.812,93.958 L -105.19,204.528 0.41,259.217 -78.037,171.216 41.436,175.803 -68.392,129.712 41.29,83.29 -78.167,88.237 Z"
       style="fill:#ffcc00;fill-opacity:1;fill-rule:nonzero;stroke:none"
       transform="matrix(1.3333333,0,0,-1.3333333,1117.7721,694.51373)"
       clip-path="url(#clipPath13)" />
  </g>
</svg>
